!!! OTL: Berkowitz375
!!! Chapter: 1
!!! Section: III
!!! Page: 82
!!! Mode: 
!!! Encoder: DJB
**kern
*staff1
*I"Piano
=1-
*clefF4
*k[f#]
*G:
*M4/4
2r
4r
4D\
=2
4B\
8A\L
8G\J
4D\
4G\
=3
4E-\
4G\
4D\
8r
8BB/
=4
4C/
4D\
4E\
4c\
=5
2B\
4A\
4D\
=6
4E-\
4D\
4c\
4D\
=7
4E\
4D\
2B\
=8
8r
8D/L
8C#/
8D/J
4E\
4D\
=9
4E-\
4D\
4G\
4r
==
*-
